X: 2325
T: Bag Of Potatoes, The
R: reel
M: 4/4
K: Gmajor
|:Bd~d2 ce~e2|Bd~d2 cAGA|Bd~d2 ce~e2|degb aged:|
|:debg eaag|debg edd2|debg ae~e2|gedc BG~G2:|

